X:1
T:Aire Vasco
T:Aire Vasco
T:Antonio J. Manjon (1866 - 1919)
T:PARA GUITARRA
C:Antonio J. Manjon (1866 - 1919)
%%score ( 1 2 3 4 )
L:1/8
Q:1/4=60
M:4/4
K:G
V:1 treble-8 nm="Classical Guitar" snm="Guit."
V:2 treble-8 
V:3 treble-8 
V:4 treble-8 
V:1
 !2!g4 f(g/a/) g!2!f | g4 f(g/a/) gf |"_marcato" g2 z2 z2 z2 | c'(3(c'/d'/c'/) ba [egb]!mf! z z2 | %4
!f! a(3(a/b/a/) gf [Beg]!>(! z z2!>)! | %5
 gf fe z/ B[^DAB][DAB]/ B/{!fermata!B!fermata!d}!fermata!=c/4B/4 | g4 f(g/a/) gf/b/ | %7
 g4 f(g/a/) g(3f/b/f/ | g2 z2 z2 z2 |!ff! c'(3((c'/d'/c'/)) ba [egb]"_rubato" z z2 | %10
!f! a(3(a/b/a/) ^ge!f! [^A^c=g] z z2 | gf fe z [AB]2 [F=c] | z [AB] z2 z2 z2 |: %13
[K:E][Q:1/4=80]"^C4" b4 a(3(a/b/a/) gf | b4 a(3((a/b/a/)) gf | %15
!<(! b"_C10"e'!<)!!f! d'c'!>(! b"_poco rit."=a aa!>)! | a(3(a/b/a/) gf ge fg | f4!-(!{fb} !-)!b4 | %18
 b4 a(3((a/b/a/)) gf | b4 a(3(((a/b/a/))) gf |!f! g(3(g/a/g/) f^e"^C2" [Acf]4 | %21
 f(3(f/g/f/) ed f(3(f/g/f/) ed :| c(3(c/=d/c/) BA [^DAB]4 | [DAB]3 z z2 z2 || %24
[K:G][M:10/8][Q:1/8=138]"^Tempo di Zorzico""_energico" z [GB]2 [GBe]2 z !0![GB]2 [GBe]2 | %25
 [Bf][Ba]>B ^d>!3![Af] e=d>=c B>^A | z [GB]2 [GBe]2 z [GB]2 [GBe]2 | [Bf][Ba]>B ^d>[Af] e3- e2 | %28
 de>f g>a b2- b/a/ g2 | a!2!c'>d !-(!f>!-)!a g3- g2 | BB>^d f>a g2- g/f/ e2 | %31
 z [AB]2 [AB]2 z [GB]2 [GBe]2 | ef>g a>b c'2- c'/b/ a2 | z [^dfb]2 [dfb]3/2 z/ e=d>[Gc] z2 | %34
 BB>^d f>a g2- g/f/ e2 | z [AB]2 [AB]2 z [GB]2 [GBe]2 | ef>g a>b c'2- c'/b/ a2 | %37
 z [^dfb]2 [dfb]3/2 z/ [GBe]3- [EGBe]2 | z z B,"_arm. 7" !fermata!B, B"^arm. 12" B3 z3/2 B/ || %39
[K:E]!ff! bg>e c>d Bc>d e>f |"^C4" g^^f>g"^C6" c'>b a2 z z2 |!mf! ba>c f>a ag>B e>g | %42
 gf>B d>f e2 z z2 | gf>e c>d Bc>d e>f | g^^f>g c'>b a2 z z2 | ba>c fa ag>B eg | %46
 g/f<ac/ d!0!B- B3- B2 |[K:G][M:2/4][Q:1/4=108]!mf! (3(B/c/B/)^A/B/ ^c/^d/e/f/ | %48
 (g/=a/)(g/f/) (g/f/)e/B/ | f/(g/f/)e/ f/a/^d/f/ | (e/g/)B/e/ G/B/E/G/ | %51
 =d/d/(^c/d/) (e/f/)(g/a/) | !1!b/(c'/b/)a/ (b/d'/)g/b/ |"^C5" a/(b/a/)^g/ a/c'/e/f/ | %54
 (g/b/)d/g/ B/d/G/B/ |: (3(B/c/B/)^A/B/ ^d/f/(g/a/) | !-(!g/!-)!b/g/f/ (e/g/)e/c/ | %57
 (3(B/c/B/)^A/B/ ^d/f/(g/a/) | !-(!g/!-)!b/g/f/ (e/g/)e/B/ | (3(e/f/e/)^d/e/ (f/g/)(a/b/) | %60
 !-(!c'/!-)!e'/c'/b/ (a/c'/)a/f/ |"^C7" g/b/g/e/ (f/a/)f/^d/ |1 [GBe]2 z2 :|2 [GBe]2 z/ B/B/B/ |: %64
[K:E]!f! g/f/e/d/ e/B/c/d/ | (3(B/c/B/)^A/B/ (c/d/)(e/f/) |"^C4" g/(a/g/)f/ g/^e/"^C6"c'/b/ | %67
 (a/b/)(g/a/) f2 | (b/a/)f/c/ A/c/f/a/ | (a/g/)e/B/ G/B/e/g/ |1 (g/f/)d/B/ A/B/d/[ABf]/ | %71
 e/B/B/B/ c/B/B/B/ :|2 (g/f/)a/c/ e/d/f/B/ | B/B/B/B/ B/B/B/B/ || %74
{!fermata!B!fermata!=d} !fermata!=c2 !fermata!B2 || %75
[K:G]"^leggerissimo" z/4 (E,/4F,/4G,/4)B,/4E/4G/4(B/4 c/4B/4)^A/4B/4(^c/4^d/4)(e/4f/4) | %76
 (g/4a/4g/4)(f/4g/4f/4)(e/4f/4 e/4)^d/4f/4e/4B/4G/4E/4B,/4 | %77
 (f/4g/4f/4)e/4f/4a/4^d/4f/4 (11:8:11(B/4d/4)A/4B/4F/4A/4B/4(B/4d/4)(d/4f/4) | %78
 (11:8:11E/4G/4B/4e/4(e/4g/4e/4)B/4e/4B/4G/4 (12:8:12E/4G/4B/4e/4B,/4E/4G/4B/4G,/4B,/4E/4G/4 | %79
 =d3/2e/4d/4 (^c/4d/4)(e/4f/4)(g/4a/4)(b/4=c'/4) | %80
 (6:4:6(b/c'/b/)a/b/d'/ g/4b/4d/4g/4B/4d/4G/4B/4 | %81
 (10:8:10D/4c/4f/4a/4(a/4b/4a/4)^g/4a/4c'/4 (7:4:7(D/4F/4)A/4c/4e/4[Af]/4[ca]/4 [ca] | %82
 (11:8:11(g/4b/4g/4)d/4g/4d/4B/4G/4B/4d/4g/4 (12:8:12D/4G/4B/4d/4B,/4D/4G/4B/4G,/4B,/4D/4G/4 | %83
 (B B/4)B/4c/4B/4 ^A/4B/4(^c/4^d/4)(e/4f/4)(g/4a/4) | %84
 !-(!g/4<!-)!b/4 (3(a/4b/4a/4)(3(g/4a/4g/4)(3(f/4g/4f/4) (3(e/4f/4e/4)^d/4e/4 (f/4e/4)=d/4c/4 | %85
 (B B/4)B/4c/4B/4 ^A/4B/4(^c/4^d/4)(e/4f/4)(g/4a/4) | %86
 !-(!g/4<!-)!b/4 (3(a/4b/4a/4)(3(g/4a/4g/4)(3(f/4g/4f/4) (e/4f/4e/4)^d/4f/4e/4d/4f/4 | %87
 (9:8:9e/4(f/4e/4)^d/4e/4(f/4e/4)(g/4f/4) (a/g/)a/b/ | %88
 !-(!c'/4<!-)!e'/4 (9:6:9(=d'/4e'/4d'/4)(c'/4d'/4c'/4)(b/4c'/4b/4) (10:8:10(a/4b/4a/4)^g/4a/4(b/4a/4)c'/4b/4!-(!b/4 | %89
!>(! !-)!d'c' af!>)! | [Be]2 x2 | g/>B,/G"^più lento" G/>G/G- | G2 FF/4E/4G/4F/4 | z [Ge]- [Ge]2 | %94
"^a tempo" B,2 x2 | %95
 !-(!g/4<!-)!b/4 (3(a/4b/4a/4)(3(g/4a/4g/4)(3(f/4g/4f/4) (3(e/4f/4e/4)^d/4e/4 (f/4e/4)=d/4c/4 | %96
 (B B/4)B/4c/4B/4 ^A/4B/4(^c/4^d/4)(e/4f/4)(g/4a/4) | %97
 !-(!g/4<!-)!b/4 (3(a/4b/4a/4)(3(g/4a/4g/4)(3(f/4g/4f/4) (e/4f/4e/4)^d/4f/4e/4d/4f/4 | %98
 (9:8:9e/4(f/4e/4)^d/4e/4(f/4e/4)(g/4f/4) (a/g/)a/b/ | %99
 !-(!c'/4<!-)!e'/4 (3(d'/4e'/4d'/4)(3(c'/4d'/4c'/4)(3(b/4c'/4b/4) (10:8:10(a/4b/4a/4)^g/4a/4(b/4a/4)c'/4b/4!-(!b/4 | %100
 !-)!d'c' af | [Be]2 x2 |"^più lento" g/>!-(!B,/!-)!G G/>G/G- | G2 FF/4E/4G/4F/4 | z [GBe] z2 | %105
 z [AB]2 [ABf] | z [GBe] z2 | z [AB]2 [AB] | z [FAc] z2 | z [GB]2 [EGB] | %110
"^rall." z [^DAB]2 !fermata![DAB] | %111
"^vivo" (7:4:7(E,/F,/)G,/B,/E/F/G/!<(! (7:4:7B/^d/e/f/g/a/b/!<)! | %112
!>(! (6:4:6(!^!c'/a/)f/e/^d/c/ (6:4:6A/F/!>)!^D/C/A,/F,/ | %113
 (7:4:7(E,/F,/)G,/B,/!-(!!3!E/!-)!F/G/!<(! (7:4:7B/^d/e/f/g/a/b/!<)! | %114
!>(! (6:4:6(!^!c'/a/)f/e/^d/c/ (6:4:6A/F/!>)!^D/C/A,/F,/ | %115
 (6:4:6(E,/F,/)G,/B,/E/F/ (7:4:7G/B/^d/e/f/g/^g/ | %116
 (7:4:7!4!a/^a/b/c'/^c'/d'/^d'/!>(! (6:4:6e'/d'/=d'/^c'/=c'/b/!>)! | %117
 (27:24:9(1:1:3(c'/4d'/4c'/4)(1:1:3(b/4c'/4b/4)(1:1:3(a/4b/4c'/4) b/4B/4e/4g/4b/4g/4e/4B/4 | %118
 (10:8:10B,/4^D/4F/4A/4B/4(c/4B/4)^A/4B/4(B/4 !^!!fermata!g)!^!!fermata!f | %119
[M:4/4][Q:1/4=60]"^primo tempo" g4 f(3(f/g/a/) gf | g4 f(3(f/g/a/) (3g/f/b/(3f/b/f/ | %121
 g [Be]2 [Be-]2 e/[Ge]/- [GBe]2 | c'(3((c'/d'/c'/)) ba [egb] z z2 | a(3(a/b/a/) ^ge [^A^c=g] z z2 | %124
 gf fe z [AB]2 [F=c] | z [AB-] B2- B4 | %126
 (11:8:11E/4G/4B/4e/4e/4!>(!(g/4e/4)B/4e/4B/4G/4 (12:8:12E/4G/4B/4e/4 B,/4E/4G/4B/4 G,/4B,/4E/4-G/4- !fermata![G,B,EGB]2!>)!!pp! !fermata![F,B,FA^d]2 | %127
 [E,B,EGe]4 z4 |] %128
V:2
 z2 [Be]2 [ce] z z2 | z2 [Be]2 [ce] z z2 | z [Be]2 [Be]2 e- e2 | f3 a x4 | x8 | %5
 [Ac]2 [G^c]2 x3 !arpeggio![^DA] | z2 [Be]2 [ce] z z2 | z2 [Be]2 [ce] z z2 | z [Be]2 [Be]2 e- e2 | %9
 f3 a x x x2 | x8 | x8 | x8 |:[K:E] GBeB FB df | GBeB FB df | x8 | z d2 f z B3 | %17
 z [FAd][EAc][DAB] x4 | GBeB FB df | GBeB FB df | x8 | [Ac]2 A2 [FA]2 [FA]2 :| %22
 [FA] x [FA] F/E/ x4 | x8 ||[K:G][M:10/8] !2!B,!1!^C>!3!^D !1!E>!3!F !4!G2- G/F/ E2 | %25
 ^DF3/2 z/ [FA]>D [EG][EG]>[EG] [EG]>E | B,^C>^D E>F G2- G/F/ E2 | %27
 ^DF3/2 z/ [FA]>[DA] [EG][EG]>[EG] [EG][EG] | z [Ac]2 [Ac]2 z [GB]2 [GB]2 | %29
 z [FA]2 !-(!A>!-)!c B3- B2 | z [FA]3/2 z/ [^DB]>[FB] E[GB]>A G2 | B,B,>^D F>!4!A !2!G2- G/F/ E2 | %32
 z [GB]>[GB] [GB]>[GB] z [Ac]2 [ce]2 | BB>A F>G e[EG]>[EG] [EGB]>[E^A] | %34
 z [FA]3/2 z/ [^DB]>[FB] E[GB]>A G2 | B,B,>^D F>!4!A !2!G2- G/F/ E2 | %36
 z [GB]>[GB] [GB]>[GB] z [Ac]2 [ce]2 | BB>A F>G x5 | x10 || %39
[K:E] z [EG]>[EG] [FA]>[FA] G[EG]>[EG] [GB]>[GB] | %40
 [GB][GB]>[GB^e] e>[cg] [^Fc][Ac]>[Ac] [GB][^FA] | F[Ac]>[Ac] [Ac]>[Ac] z [GB]>[GB] [GB]>[GB] | %42
 z [FA]>[FA] [FA]>[AB] [EGB] [EG]>[EG] [DA][DAB] | [EGB][EG]>[EG] [FA]>[FA] G[EG]>[EG] [GB]>[GB] | %44
 [GB][GB]>[GB^e] e>c [Fc][Ac]>!>(![Ac] [GB][FA]!>)! | F[Ac]>A [Ac][Ac] z [GB]>[GB] [GB][GB] | %46
 z/ [Ac]-<[Ac][FA]/- [FA] x2 x4 |[K:G][M:2/4] [EG] z z2 | [GB]3 z | x4 | [EG]2 z2 | x4 | B z z2 | %53
 x4 | [GB]2 z2 |: x4 | [GB]2 [GB]>E | A z z2 | [GB]2 [GB]2 | B z z2 | [Ac]/ z/ z c2 | B2 [B^d]2 |1 %62
 x4 :|2 x4 |:[K:E] x4 | x4 | x4 | x4 | x4 | x2 G2 |1 x4 | x4 :|2 x4 | x4 || x4 ||[K:G] [EG] x x2 | %76
 x4 | x241/60 | x241/60 | x4 | x4 | x255/64 | [Bd] z x2 | x4 | [GB]2 z2 | x4 | [GB]2 z2 | %87
 [GB]2 z2 | [Ac]2 [ce] z | x4 | x4 | x2 [^Ae]2 | [^Ae]"^rubato"[Ae] z [=A^d] | E2 =DC | x4 | %95
 [GB]2 z2 | x4 | [GB]2 z2 | [GB]2 z2 | [Ac]2 [ce] z | x4 | x4 | x2 [^Ae]2 | [^Ae][Ae] z [=A^d] | %104
 E2 =DC | x4 | E2 DC | x4 | x4 | x4 | x4 | x161/40 | x4 | x161/40 | x4 | x4 | x4 | x4 | x4 | %119
[M:4/4] z2 [Be]2 [ce] z z2 | z2 [Be]2 [ce] z z2 | x8 | f3 a x x x2 | x8 | x8 | x8 | %126
 x2 (3:2:4x x x/4 B,3/4- x4 | x8 |] %128
V:3
 E,4 A,3 B, | E,4 A,3 B, | B,E !1!FG !1!A!3!B/B/- B2 | [Ae]4 B(3(B/c/B/) !1!AG | %4
 [Fc^d] z z2 G(3(G/A/G/) !1!F!1!E | A,2 ^A,2 [B,F=A]=A, G,F, | E,4 A,3 B, | E,4 A,3 B, | %8
 B,E !1!FG !1!AB/B/- B2 | [Ae]4 B(3(B/c/B/) !-(!!1!^A!-)!G | [Fc^d] z z2 E(3(G/=A/G/) FE | %11
 [A,Ac]2 [^A,G^c]2 !2!B,>!4!C !3!^D>!4!E | !3!F2 G2- !fermata!G4 |:[K:E] G4 F4 | G4 F4 | %15
 [Ge][eg] [fa][^^f^a] g[d^f] [cf][df] | B4 G4 | B,3 z z2 z2 | G4 F4 | G4 F4 | %20
 [^EB=d] z z2 F(3(F/G/F/) =E^D- | DC- C=C- CB,- B,B, :| z A,2 =C B,(3(B,/C/B,/) A,=G, | %23
 F,"_rall."(F,/4=G,/4F,/4)E,/4 F,G,- G,2 z2 ||[K:G][M:10/8] E,3- E,2 E,3- E,2 | x4 x E,3- E,2 | %26
 E,3- E,2 E,3- E,2 | x5 E,3- E,2 | D3- D2 G,3- G,2 | D3 D2 G,[G,B,]>[G,-B,] [G,-B,-D][G,B,DG] | %30
 B,3 x2 E,2- E,/F,/ G,2 | x5 E,3- E,2 | G,3- G,2 A,3- A,>C | B,3- B,2 E,3- E,2 | %34
 B,3 x2 E,2- E,/F,/ G,2 | x5 E,3- E,2 | G,3- G,2 A,3- A,>C | B,3- B,2 E-B,>G, E,2 | x10 || %39
[K:E] E,3 A,2 B,3- B,2 | C3 [^EG]2 x3 x2 | x3 x2 !4!B,3- B,2 | B,2 z z2 x G,>G, F,F, | %43
 E,3 A,2 B,3- B,2 | C3 [^EG]2 x x3/2 x/ x x | x3 x2 B,3- B,2 | B,3- B, B- B3- B2 | %47
[K:G][M:2/4] E,4- | E,2 z2 | [B,FA]4 | B,4 | [CFA] z z2 | [DG]4 | [DAc] z z [DAc]/f/ | G,4 |: %55
 [B,FA] z z2 | E,4 | ^D2 z2 | E,4 | E,2 z2 | A,4 | B,4 |1 z/ E,/G,/B,/ E/D/C/B,/ :|2 %63
 z/ E,/G,/B,/ E/ z/ B, |:[K:E] [E,G]3 [A,FA] | [B,G]2 z2 | [CGB]3 [^EGc] | [Fc][GB] A/c/A/c/ | %68
 F2 A2 | !4!B,4 |1 B,2 F>[DA] | [EG]2 [B,A]2 :|2 B,2 [FA]2 | B4 || x4 ||[K:G] x4 | [GB] z z2 | %77
 [B,A]2 z2 | E2 (3EB,G, | [CFA]3/2 z/ z2 | [DGB] z z2 | x255/64 | G,2 (3DB,G, | %83
 F,/4B,/4(^D/4F/4)A/4B/4c/4B/4 x2 | E,4 | F,/4B,/4(^D/4F/4)A/4B/4c/4B/4 x2 | E,4 | G, z z2 | A,4 | %89
 x4 | G/4(B,/4C/4B,/4)(^A,/4B,/4)E/4G/4 (9:8:9(B/4c/4B/4)^A/4B/4^c/4^d/4e/4f/4 | x4 | x4 | E,4 | %94
 (7:4:7B,/^D/F/A/(B/c/B/) ^A/4B/4(^c/4^d/4)(e/4f/4)(g/4=a/4) | E,4 | %96
 F,/4B,/4(^D/4F/4)A/4B/4c/4B/4 x2 | E,4 | G, z z2 | A,4 | x4 | %101
 G/4(B,/4C/4B,/4)(^A,/4B,/4)E/4G/4 (9:8:9(B/4c/4B/4)^A/4B/4^c/4^d/4e/4f/4 | x4 | x4 | E,4 | %105
 B,2 B,2 | E,4 | B,2 B,2 | A,2 (3F,G,A, | B,2 G,>E, | G,>F, F,>!fermata!G, | x161/40 | x4 | %113
 x161/40 | x4 | x4 | x4 | !arpeggio![Aef] z z2 | z4 |[M:4/4] E,4 A,3 B, | E,4 A,3 B, | %121
 B,E FG AB x2 | [Ae]4 B(3(B/c/B/) (^AG) | [Fc^d] z z2 E(3(G/=A/G/) !-(!F!-)!E | %124
 [A,Ac]2 [^A,G^c]2 B,>C ^D>E | F2 G2- G4 | E2 (3E B, G,- x4 | x8 |] %128
V:4
 x8 | x8 | x8 | x8 | x8 | x8 | x8 | x8 | x8 | x8 | x8 | x8 | x8 |:[K:E] x4 x B3 | x4 x B3 | x8 | %16
 x8 | x8 | x4 x B3 | x4 x B3 | x8 | x8 :| x8 | x8 ||[K:G][M:10/8] x10 | x10 | x10 | x6 B>B cB | %28
 x10 | x10 | x10 | x10 | x10 | x10 | x10 | x10 | x10 | x10 | x10 ||[K:E] x10 | x10 | x10 | x10 | %43
 x10 | x10 | x10 | x10 |[K:G][M:2/4] x4 | x4 | x4 | x4 | x4 | x4 | x4 | x4 |: x4 | x4 | x4 | x4 | %59
 x4 | x2 e z | e z x2 |1 x4 :|2 x4 |:[K:E] x4 | x4 | x4 | x4 | x4 | x4 |1 x4 | x4 :|2 x4 | x4 || %74
 x4 ||[K:G] B2 x2 | x4 | x241/60 | x241/60 | x4 | x4 | x255/64 | x241/60 | x4 | x4 | x4 | x4 | x4 | %88
 x4 | x4 | x4 | x4 | x4 | x4 | x4 | x4 | x4 | x4 | x4 | x4 | x4 | x4 | x4 | x4 | x4 | x4 | x4 | %107
 x4 | x4 | x4 | x4 | x161/40 | x4 | x161/40 | x4 | x4 | x4 | x4 | x4 |[M:4/4] x8 | x8 | x8 | x8 | %123
 x8 | x8 | x8 | x481/60 | x8 |] %128

